src/assets/DeleteBtn.svg

<svg width="30" height="36" viewBox="0 0 30 36" fill="none" xmlns="http://www.w3.org/2000/svg">
<path d="M2.14286 32C2.14286 34.2 4.07143 36 6.42857 36H23.5714C25.9286 36 27.8571 34.2 27.8571 32V12C27.8571 9.8 25.9286 8 23.5714 8H6.42857C4.07143 8 2.14286 9.8 2.14286 12V32ZM8.57143 12H21.4286C22.6071 12 23.5714 12.9 23.5714 14V30C23.5714 31.1 22.6071 32 21.4286 32H8.57143C7.39286 32 6.42857 31.1 6.42857 30V14C6.42857 12.9 7.39286 12 8.57143 12ZM22.5 2L20.9786 0.58C20.5929 0.22 20.0357 0 19.4786 0H10.5214C9.96428 0 9.40714 0.22 9.02143 0.58L7.5 2H2.14286C0.964286 2 0 2.9 0 4C0 5.1 0.964286 6 2.14286 6H27.8571C29.0357 6 30 5.1 30 4C30 2.9 29.0357 2 27.8571 2H22.5Z" fill="black"/>
</svg>

<svg xmlns="http://www.w3.org/2000/svg" width="30" height="36" fill="none"><path fill="#000" d="M2.143 32c0 2.2 1.928 4 4.286 4H23.57c2.358 0 4.286-1.8 4.286-4V12c0-2.2-1.928-4-4.286-4H6.43C4.07 8 2.143 9.8 2.143 12zM8.57 12H21.43c1.178 0 2.142.9 2.142 2v16c0 1.1-.964 2-2.142 2H8.57c-1.178 0-2.142-.9-2.142-2V14c0-1.1.964-2 2.142-2M22.5 2 20.979.58a2.24 2.24 0 0 0-1.5-.58H10.52c-.557 0-1.114.22-1.5.58L7.5 2H2.143C.964 2 0 2.9 0 4s.964 2 2.143 2h25.714C29.036 6 30 5.1 30 4s-.964-2-2.143-2z"/></svg>
